X: 1713
T: Corney Drew's Hornpipe   #2
R: hornpipe, reel
%S: s:2 b:12(6+6)
R: hornpipe
B: O'Neill's 1850 #1713
O: Hartnett
Z: Bob Safranek, rjs@gsp.org
Z: A.LEE WORMAN
M: 2/4
L: 1/16
K: G
(3(DEF) \
|:   G2GF GABd | e2de gedB |\
[1,3 edef gedB | AGAB AcBA :|\
[2,4 egde BdAB | G2GG G2 :|
|: (3(def) \
|    g2fg a2ga | bgaf gfed |\
[1,3 cBcd agfe | d^cde d2 :|\
[2,4 (3(efg) de BdAB | G2GG G2 :|
